X: 68
T: the Morning Star
B: J. Miller MS, 1799, p.76
B: Kate Van Winkle Keller & George A. Fogg, "Contra Dances of New Hampshire 1783" p.68
Z: 2012 John Chambers <jc:trillian.mit.edu>
M: C|
L: 1/8
P: AAB, 16 bars, 4,4,8
K: G
"A"[|] GA | "Em"BABG  E2FG | "D"AGAF D2GA | "G"BABG "C"EFGE | "D"D2"G"G2 G2 :|
"B"[|] GA | "G"B2d2   d2ef |    gfed cBAG |    B2d2 "C"efge | "D"f2d2  d2dc |
            "G"B2e2 "D"d3c | "G"BdBA GFGA | "Em"BABG   EFGE | "D"D2"G"G2 G2 |]
